docs/assets/images/calc-svg/category-table.svg

<svg width="148" height="60" viewBox="0 0 148 60" fill="none" xmlns="http://www.w3.org/2000/svg">
<path d="M1 23.8117L92.0669 1L147 15.4393L146.756 20.7782L58.4253 57.7649C56.8582 58.4211 55.1852 58.7882 53.4873 58.8485C50.7044 58.9473 47.9548 58.2186 45.5861 56.7545L1.12207 29.272L1 23.8117Z" fill="#4F4F4F" fill-opacity="0.2"/>
<path d="M1 23.8117L92.0669 1L147 15.4393M1 23.8117L1.12207 29.272L45.5861 56.7545C47.9548 58.2186 50.7044 58.9473 53.4873 58.8485V58.8485C55.1852 58.7882 56.8582 58.4211 58.4253 57.7649L146.756 20.7782L147 15.4393M1 23.8117L45.7961 50.753C48.0357 52.1 50.5999 52.8117 53.2134 52.8117V52.8117C55.0898 52.8117 56.9481 52.4448 58.6836 51.7316L147 15.4393" stroke="#4F4F4F" stroke-opacity="0.6"/>
</svg>

<svg width="148" height="60" fill="none" xmlns="http://www.w3.org/2000/svg"><path d="M1 23.812L92.067 1 147 15.44l-.244 5.338-88.33 36.987a14.079 14.079 0 01-12.84-1.01L1.122 29.271 1 23.812z" fill="#4F4F4F" fill-opacity=".2"/><path d="M1 23.812L92.067 1 147 15.44M1 23.811l.122 5.46 44.464 27.483a14.078 14.078 0 007.901 2.093v0a14.075 14.075 0 004.938-1.083l88.331-36.987.244-5.339M1 23.812l44.796 26.941a14.391 14.391 0 007.417 2.059v0a14.39 14.39 0 005.47-1.08L147 15.439" stroke="#4F4F4F" stroke-opacity=".6"/></svg>
